X: 11012
T: BRENDAN CALLAHAN'S
C: Bob McQuillen 23 July 98
B: Bob's Note Book 11 #12
%R: reel
Z: 2020 John Chambers <jc:trillian.mit.edu>
M: C
L: 1/8
K: Em
Bd \
| e2e2 BGEG | DGAG FDGA | BGBd e2ef | gefd BABd |
| e2ed BGAG | DGEG FDGA | BABd egfe | defd e2  :|
|: Bd \
| edBd g2fg | egdB AGBA | GBAG EDGA | Beed e2Bd |
| edBd g2fg | egdB AGBA | GEGB dBed | BGED E2  :|
%%begintext align
%% This tune
%% came during Irish Week at Augusta. That's
%% where I see Brendan every year; when he was
%% younger he was taking lessons in Irish fiddling
%% and now he's on staff teaching fiddle and showing
%% others the way. Sometimes I get to play piano
%% with him and his friends (_thank you_, Brendan!)
%% and believe me, _that's_ a fun time! Cheers, Brendan!
%%endtext

%%sep 1 1 500

%%sep 1 1 500

